public/favicon.svg

<svg width="32" height="32" viewBox="0 0 32 32" fill="none" xmlns="http://www.w3.org/2000/svg">
<path fill-rule="evenodd" clip-rule="evenodd" d="M0.975048 10.2918C0.692461 10.9842 0.458245 11.7577 0.298283 12.5605C0.289022 12.607 0.279674 12.6537 0.270294 12.7006C0.117248 13.465 -0.0446685 14.2737 0.0167441 15.1315L0 16.5613C0.269009 21.3788 2.19874 24.7461 4.97624 27.3093C6.33104 28.5593 7.83477 29.6265 9.75305 30.414C10.6568 30.7857 11.6862 31.1047 12.7783 31.3296C14.1875 31.6203 15.9144 31.7051 17.4156 31.5884C18.4784 31.5061 19.3652 31.3682 20.2618 31.1111C22.556 30.453 24.5231 29.4644 26.1532 28.1456C26.9624 27.4909 27.6761 26.7361 28.3825 25.9363C28.7143 25.5833 28.9957 25.1971 29.2782 24.8017C29.4779 24.5221 29.6334 24.2255 29.7917 23.9233C29.8639 23.7857 29.9366 23.6469 30.0144 23.508C31.0347 21.6888 31.8649 19.3818 32 16.6855H23.6257C23.5485 17.3248 23.3779 17.9197 23.1674 18.4719C22.6157 19.9194 21.6197 21.0349 20.6766 22.091C20.6043 22.172 20.5323 22.2527 20.4608 22.3331C19.417 23.5071 18.5234 24.7822 17.7936 26.2341L17.7817 26.2578C17.4145 26.9876 17.0513 27.7093 16.7982 28.5233C16.604 29.1485 16.4333 29.798 16.2636 30.4439L16.261 30.4539C16.245 30.5146 16.2346 30.5786 16.224 30.6432C16.1984 30.8008 16.1721 30.9623 16.062 31.0907C15.9277 30.8455 15.8762 30.5777 15.8252 30.313C15.806 30.2131 15.7868 30.1136 15.7633 30.016C15.6759 29.6536 15.5592 29.2896 15.4451 28.9412C15.4159 28.8519 15.3869 28.7627 15.3581 28.6738C15.1597 28.0616 14.9645 27.4596 14.6886 26.9109C14.3741 26.2846 14.0525 25.6796 13.7135 25.0996C13.369 24.5102 13.0028 23.9628 12.6188 23.4079C12.1852 22.7815 11.656 22.2326 11.1237 21.6804C10.7433 21.2859 10.3614 20.8897 10.0115 20.4623C9.37924 19.6897 8.91845 18.735 8.6384 17.656C8.54336 17.2907 8.46079 16.8709 8.42702 16.4994C8.39324 16.1278 8.35946 15.351 8.37958 15.1652C8.39969 14.9795 8.51408 14.2353 8.63798 13.8148C9.01604 12.5329 9.63594 11.5341 10.4493 10.6898C11.5046 9.59422 12.9048 8.68833 14.7085 8.38113C16.8262 8.0209 18.7148 8.68918 20.0424 9.45589C20.7391 9.85771 21.3175 10.358 21.8338 10.9486C22.7277 11.9707 23.3799 13.2479 23.5963 14.8954H31.9859C31.975 14.7289 31.9614 14.5612 31.945 14.3922C31.9305 14.2431 31.9204 14.0724 31.9104 13.9032C31.9005 13.736 31.8906 13.5701 31.8767 13.4276C31.4401 10.9486 30.6028 9.31434 29.6563 7.54611L27.9467 5.34923L25.8147 3.24621C24.2906 2.09549 22.4919 1.16457 20.3611 0.579027C18.2383 -0.00439077 15.5232 -0.200415 13.0966 0.240437C8.53954 1.06868 5.4574 3.43205 3.06475 6.47049C2.20468 7.5792 1.55337 8.87502 0.975048 10.2918Z" fill="url(#paint0_linear)"/>
<circle cx="15.9592" cy="15.7912" r="4.67792" fill="url(#paint1_linear)"/>
<defs>
<linearGradient id="paint0_linear" x1="29.7206" y1="0.543937" x2="23.559" y2="21.6317" gradientUnits="userSpaceOnUse">
<stop stop-color="#6EE5F7"/>
<stop offset="0.0666667" stop-color="#79E6F8"/>
<stop offset="0.133333" stop-color="#77E4F8"/>
<stop offset="0.2" stop-color="#73DFF8"/>
<stop offset="0.266667" stop-color="#6DD9F8"/>
<stop offset="0.333333" stop-color="#66D1F8"/>
<stop offset="0.4" stop-color="#5EC7F9"/>
<stop offset="0.466667" stop-color="#54BCF9"/>
<stop offset="0.533333" stop-color="#4BB1F9"/>
<stop offset="0.6" stop-color="#41A6F9"/>
<stop offset="0.666667" stop-color="#399DFA"/>
<stop offset="0.733333" stop-color="#3294FA"/>
<stop offset="0.8" stop-color="#2C8EFA"/>
<stop offset="0.866667" stop-color="#2889FA"/>
<stop offset="0.933333" stop-color="#2687FA"/>
<stop offset="1" stop-color="#2586FA"/>
</linearGradient>
<linearGradient id="paint1_linear" x1="19.9706" y1="11.2741" x2="18.1312" y2="17.4987" gradientUnits="userSpaceOnUse">
<stop stop-color="#6EE5F7"/>
<stop offset="0.0666667" stop-color="#79E6F8"/>
<stop offset="0.133333" stop-color="#77E4F8"/>
<stop offset="0.2" stop-color="#73DFF8"/>
<stop offset="0.266667" stop-color="#6DD9F8"/>
<stop offset="0.333333" stop-color="#66D1F8"/>
<stop offset="0.4" stop-color="#5EC7F9"/>
<stop offset="0.466667" stop-color="#54BCF9"/>
<stop offset="0.533333" stop-color="#4BB1F9"/>
<stop offset="0.6" stop-color="#41A6F9"/>
<stop offset="0.666667" stop-color="#399DFA"/>
<stop offset="0.733333" stop-color="#3294FA"/>
<stop offset="0.8" stop-color="#2C8EFA"/>
<stop offset="0.866667" stop-color="#2889FA"/>
<stop offset="0.933333" stop-color="#2687FA"/>
<stop offset="1" stop-color="#2586FA"/>
</linearGradient>
</defs>
</svg>

<svg viewBox="0 0 32 32" fill="none" xmlns="http://www.w3.org/2000/svg"><path fill-rule="evenodd" clip-rule="evenodd" d="M.975 10.292a12.555 12.555 0 0 0-.677 2.268l-.028.14c-.153.765-.315 1.574-.253 2.432L0 16.562c.269 4.817 2.199 8.184 4.976 10.747 1.355 1.25 2.859 2.317 4.777 3.105.904.372 1.933.69 3.025.916 1.41.29 3.136.375 4.638.258 1.062-.082 1.95-.22 2.846-.477 2.294-.658 4.261-1.647 5.891-2.965.81-.655 1.523-1.41 2.23-2.21.331-.353.613-.739.895-1.134.2-.28.355-.576.514-.879.072-.137.145-.276.222-.415A15.515 15.515 0 0 0 32 16.686h-8.374a7.545 7.545 0 0 1-.459 1.786c-.551 1.447-1.547 2.563-2.49 3.619l-.216.242a17.968 17.968 0 0 0-2.667 3.901l-.012.024c-.367.73-.73 1.451-.984 2.265a45.448 45.448 0 0 0-.534 1.92l-.003.01c-.016.062-.026.126-.037.19-.026.158-.052.32-.162.448-.134-.245-.186-.513-.237-.778-.019-.1-.038-.2-.062-.297a14.166 14.166 0 0 0-.318-1.075l-.087-.267c-.198-.612-.394-1.214-.67-1.763a32.416 32.416 0 0 0-.975-1.811 25.74 25.74 0 0 0-1.094-1.692c-.434-.627-.963-1.175-1.495-1.728-.38-.394-.763-.79-1.113-1.218-.632-.772-1.093-1.727-1.373-2.806a7.518 7.518 0 0 1-.211-1.157c-.034-.371-.068-1.148-.047-1.334.02-.185.134-.93.258-1.35a7.4 7.4 0 0 1 1.811-3.125c1.056-1.096 2.456-2.002 4.26-2.309 2.117-.36 4.006.308 5.333 1.075a7.006 7.006 0 0 1 1.792 1.493c.894 1.022 1.546 2.299 1.762 3.946h8.39a17.912 17.912 0 0 0-.041-.503c-.015-.149-.025-.32-.035-.489-.01-.167-.02-.333-.033-.475-.437-2.48-1.274-4.114-2.22-5.882l-1.71-2.197-2.132-2.103A15.991 15.991 0 0 0 20.36.58c-2.123-.583-4.838-.78-7.264-.339-4.557.829-7.64 3.192-10.032 6.23-.86 1.11-1.512 2.405-2.09 3.822z" fill="url(#a)"/><circle cx="15.959" cy="15.791" r="4.678" fill="url(#b)"/><defs><linearGradient id="a" x1="29.721" y1=".544" x2="23.559" y2="21.632" gradientUnits="userSpaceOnUse"><stop stop-color="#6EE5F7"/><stop offset=".067" stop-color="#79E6F8"/><stop offset=".133" stop-color="#77E4F8"/><stop offset=".2" stop-color="#73DFF8"/><stop offset=".267" stop-color="#6DD9F8"/><stop offset=".333" stop-color="#66D1F8"/><stop offset=".4" stop-color="#5EC7F9"/><stop offset=".467" stop-color="#54BCF9"/><stop offset=".533" stop-color="#4BB1F9"/><stop offset=".6" stop-color="#41A6F9"/><stop offset=".667" stop-color="#399DFA"/><stop offset=".733" stop-color="#3294FA"/><stop offset=".8" stop-color="#2C8EFA"/><stop offset=".867" stop-color="#2889FA"/><stop offset=".933" stop-color="#2687FA"/><stop offset="1" stop-color="#2586FA"/></linearGradient><linearGradient id="b" x1="19.971" y1="11.274" x2="18.131" y2="17.499" gradientUnits="userSpaceOnUse"><stop stop-color="#6EE5F7"/><stop offset=".067" stop-color="#79E6F8"/><stop offset=".133" stop-color="#77E4F8"/><stop offset=".2" stop-color="#73DFF8"/><stop offset=".267" stop-color="#6DD9F8"/><stop offset=".333" stop-color="#66D1F8"/><stop offset=".4" stop-color="#5EC7F9"/><stop offset=".467" stop-color="#54BCF9"/><stop offset=".533" stop-color="#4BB1F9"/><stop offset=".6" stop-color="#41A6F9"/><stop offset=".667" stop-color="#399DFA"/><stop offset=".733" stop-color="#3294FA"/><stop offset=".8" stop-color="#2C8EFA"/><stop offset=".867" stop-color="#2889FA"/><stop offset=".933" stop-color="#2687FA"/><stop offset="1" stop-color="#2586FA"/></linearGradient></defs></svg>
